src/lib/packages/icons/src/assets/filled/music-list.svg

<svg width="24" height="24" viewBox="0 0 24 24" fill="none" xmlns="http://www.w3.org/2000/svg">
<path d="M2.25 6.99998C2.25 6.58598 2.586 6.24998 3 6.24998H12C12.414 6.24998 12.75 6.58598 12.75 6.99998C12.75 7.41398 12.414 7.74998 12 7.74998H3C2.586 7.74998 2.25 7.41398 2.25 6.99998ZM10.75 12C10.75 11.586 10.414 11.25 10 11.25H3C2.586 11.25 2.25 11.586 2.25 12C2.25 12.414 2.586 12.75 3 12.75H10C10.414 12.75 10.75 12.414 10.75 12ZM7 16.25H3C2.586 16.25 2.25 16.586 2.25 17C2.25 17.414 2.586 17.75 3 17.75H7C7.414 17.75 7.75 17.414 7.75 17C7.75 16.586 7.414 16.25 7 16.25ZM20.975 5.75193C20.626 5.48793 20.147 5.42994 19.592 5.58494L16.5 6.45286C15.715 6.68086 15.167 7.40795 15.167 8.21995V13.5249C14.671 13.0999 14.036 12.834 13.333 12.834C11.771 12.834 10.5 14.105 10.5 15.667C10.5 17.229 11.771 18.5 13.333 18.5C14.895 18.5 16.167 17.229 16.167 15.667V12C16.167 11.559 16.425 11.164 16.774 11.062L20.4 10.049C21.078 9.86105 21.5 9.34107 21.5 8.69407V7.02708C21.5 6.44508 21.323 6.01593 20.975 5.75193Z" fill="currentColor"/>
</svg>

<svg xmlns="http://www.w3.org/2000/svg" width="24" height="24" fill="none"><path fill="currentColor" d="M2.25 7A.75.75 0 0 1 3 6.25h9a.75.75 0 0 1 0 1.5H3A.75.75 0 0 1 2.25 7Zm8.5 5a.75.75 0 0 0-.75-.75H3a.75.75 0 0 0 0 1.5h7a.75.75 0 0 0 .75-.75ZM7 16.25H3a.75.75 0 0 0 0 1.5h4a.75.75 0 0 0 0-1.5ZM20.975 5.752c-.349-.264-.828-.322-1.383-.167l-3.092.868a1.853 1.853 0 0 0-1.333 1.767v5.305a2.808 2.808 0 0 0-1.834-.691 2.836 2.836 0 0 0-2.833 2.833 2.836 2.836 0 0 0 2.833 2.833 2.837 2.837 0 0 0 2.834-2.833V12c0-.441.258-.836.607-.938l3.626-1.013c.678-.188 1.1-.708 1.1-1.355V7.027c0-.582-.177-1.011-.525-1.275Z"/></svg>
